X: 23
M:6/8
L:1/16
K:G
cBABcA dcBcdB | A2 Td4 TA4 :: e2 | g2d2e2 g2d2B2 |
d2 Tg4 TB4 G2 | g2d2e2 g2d2B2 | A2 Tf4 TA4 e2 |g2d2e2 g2d2B2 |
d2efge g2d2B2 | cBABcA dcBcdB | A2 Tf4 TA4 :|


